X:1
T:Lavapies
T:Lavapies
T:from the suite "Iberia"
T:I.Albeniz
C:I.Albeniz
%%score { ( 1 4 ) | ( 2 5 6 ) | 3 }
L:1/8
Q:1/4=84
M:2/4
K:Db
V:1 treble nm="Piano" snm="Pno."
V:4 treble 
V:2 bass 
V:5 bass 
V:6 bass 
V:3 bass 
V:1
"^Allegretto bien rythmé mais sans presser""^P105""^Ce morceau doit être joué avec allégresse et librement" z2 !fermata!z F | %1
!<(! (3!tenuto!.[FA]!tenuto!.[Ad]!tenuto!.[df] .[fa]/ z/ .[_fd']/ z/ | %2
 (!>!d'2!<)!"_"[I:staff +1] !>!e')[I:staff -1] x | %3
"^aimable" (3(!>![f_bc'][=ed'][_ec']) (!>![cb].[ga]) | %4
 (!>!b2"_"[I:staff +1] (3!>!a)[I:staff -1] (!>![df].[A_g]) | %5
{/=c'} (3!>![_cfb].a.[cfb] (.a/ z/"_""^sec"[I:staff +1] (g/)[I:staff -1] z/ | %6
"_"[I:staff +1] (!arpeggio!!>![EAca]>)!>!A-)[I:staff -1] (3:2:4.=c/ z/ (!>![Ge].[Af]) | %7
 (3!>![=B_g].[ca].[=ea] .[ec'=e']/ z/ .[c_g]/ z/ | %8
"_"[I:staff +1] a>A-[I:staff -1] (3:2:4F/ z/ (!>![df].[A_g]) | %9
{/=c'} (3!>![_cfb].a.[cfb] (.a/ z/"_""^sec"[I:staff +1] (g/)[I:staff -1] z/ | %10
"_"[I:staff +1] !arpeggio!!>![EAca]>)!>!A-[I:staff -1] (3:2:4c/ z/ (!>![_Ge].[Af]) | %11
 (3!>![=B_g].[ca](.[=ea]"_"[I:staff +1] (.[ga]/)[I:staff -1] z/"^" (.[c_g]/) z/ | %12
"_"!mf![I:staff +1] a>)A-[I:staff -1] (3:2:4F/ z/ (!>![aa']=e') | %13
 (3!>![=gd'_g']a[fd'f'] (3[=ec']f[=d=b] | (3[f=d'][_g_e']c (3:2:4[G,C]/ z/ (!>![=gb=c'][_ga]) | %15
 (3[=gc'_g']_g[gc'] (3c[_G=e][ceb] | %16
"^P106" (3!>![=gd'f'][=ec']f (3:2:4[F,C]/ z/!ff!!>(! (!>![aa']=e') | %17
 (3[=gg']a[fd'f'] (3[=ec']f[=d=b] | %18
 (3[f=d'][_ge']c!>)!!mf! (3:2:4[G,C]/ z/!f!!>(! (!>![=gb=c'][_ga]) | %19
 (3!>![=gc'_g']_g[_fc'] (3c[G=e]!mf![ceb]!>)! | %20
!fff! (3:2:4.[=e=g_d'=e']/ !fermata!z/"_joyeux"!mf! [fc'e'f']"^poco rubato"[efc'] (3:2:4!fermata![cef]!fermata!F !fermata!z/!f!!>(! !>![_e_a_e']/ | %21
 (3!>![dfd'].[cfc'].[Bfb]!>)!!mf! (3:2:4.[Afa]/ z/ =G[Af] | %22
[M:1/4] (3:2:4.[=e=g_a]/ z/!f!!<(! !>![fd']!>![=ec']!<)! |!>(! (3:2:2(!>!b2 a)!>)! | %24
[M:2/4] !>![cgc']2 [Gg]2 |[M:1/4] (3:2:4.[=ec'=e']/ z/!f!!<(! !>![cec'].[cec'] | %26
 .[c=ec']/!<)! z/ .[_d__b_d'] | %27
[M:2/4]!>(! (3!>![c_egc'].[Bb].[Aa]!>)!!mf! (3:2:4.[Gg]/ z/ ([ge']__b) | %28
[M:1/4] (3:2:4[__a_g']/ z/!f! !>![gc'][cb] | _a2 |[M:2/4]!f! !>![Bdfb]2 [Ff]2 | %31
!mf! (3:2:4.[e=fc']/ z/!f!!>(! .[fc'e'f'].[efc'] (3:2:4.[cef]!>)!!mf!F/ z/!f!!>(! !>![_ea_e'] | %32
 (3!>![dfd'].[cfc'].[Bfb]!>)!!mf! (3:2:4[Afa]/ z/ =G[Af] | %33
 (3:2:4[=eg=a]/ z/!f! .[fd'].[ec'] (3:2:2!>!b2 !courtesy!_a | %34
"^P107" (3!>![d=gbc']!f!!>(! [b=g'][g=e'] (3[=ec']g[_cf]!>)! | %35
!mf! (3:2:4([=G_e][d_f]/) z/!f!!>(! .[=g_b=g'] !>![=fa=f'].[dfd'] | %36
 (3:2:4!>![e=ge']!>)!!mf!.[dfd']z/!ff!!>(!!>![faf']/"^rubato" (3!>!!fermata![ege'].[cec'].[dfd'] | %37
 (3!>!!fermata![Bdb].[=GB=g].[Aca]"^rit."[Q:1/4=92] !>![FAf].[EGe] | %38
 (3!>!!fermata![=GB=g].[FAf].[EGe]!>)!!mf! .[FAf]/!<(! z/ [ce=fc']/ z/ | %39
 (3:2:4[c'=e'f'c'']/!<)! z/!fff!!>(! !>![ac'e'a']!>![fc'e'f'] (3:2:4!>![c=efc']!>)!!mf!A/ z/[Q:1/4=96]!fff! [c'=g'] | %40
"^a Tempo"!>(! (3!>![fac'f'].[ee'].[dd'] (3[cc']a[A_f] | %41
!mf! (3:2:4.[=G_cd]/!>)! z/!ff!!>(! !>![f_c'f'].[ee'] (!>![d=ed']!>![=cf=c']) | %42
 (3!>![_e=g_e']!>)!!mf!.[d_fd'].[cfc']!>(! (3[fb]d[_cda]!>)! | %43
!mp! (3.[_Bc]"_rubato" [=e=g=e'][gb=g']!<(! !tenuto!!fermata![faf']!tenuto![dfd'] | %44
!mf! (3:2:4!tenuto![B=ec']/!<)! z/!mp! [B_db][d_f_d']"^sec" .[_A_c_a]/z/"^sec".[=B=g=b]/ z/ | %45
"^sec" (3:2:4.[=c=g]/ z/!>(! !tenuto![_eg_e']!tenuto![_d_f_d'] !tenuto!!fermata![cec']!tenuto![Bdb] | %46
 (3!>![Bdb].[=GB=g].[=EG=e]!>)!!mp!!<(! (3!>![FAf]_c"^sec".[fg=b]!<)! | %47
!f!!>(! (3:2:4.[c'=e'f'c'']/ z/ .[ac'e'a'].[fc'e'f'] (3:2:4[c=efc']!>)!!mp!A/ z/!f!!>(! .[c'=g'] | %48
 (3!>![fac'f'].[ee'].[dd'] (3!>![cc']a!>)!!mp![=Bd] | %49
!<(! (3:2:4.[=cf]/ z/ [ac'a'][b=d'b']!<)!!mf! !tenuto![=gc'=g']!tenuto![ff'] | %50
"^P108" (3:2:4[eac'e']/ z/!mp! .[_g__e'g'].[__ee'] (3:2:2(c'2 b) | %51
 (3:2:4[A__ea]/ z/!f! .[a__e'a'].[be'b'] (!>![ae'a'].[gbg']) | %52
 (3:2:4!tenuto![ac'_e'a']/ z/!mf!!>(! !tenuto!.[=g=d'=g']!tenuto!.[fc'f']"_rubato" (3!tenuto!.[=dbd']!tenuto!.[cac']!tenuto!.[Aea] | %53
 (3!tenuto!.[=G=d=g]!tenuto!.[Fcf]!tenuto!.[=DBd] (3:2:2(([CAc]2!p! [B,FB]))!>)! | %54
!mp!!>(! (3!tenuto!.[=DF=d]!tenuto!.[CEc]!tenuto!.[B,DB]!>)!!p! (3:2:4[CEc]/!<(! z/ ([=Bd=g].c) | %55
"^sec" (3:2:4.[=gc'=d']/ z/!<)!!fff!!>(! .[c'_f'_a'].[=gc'=e'] (3:2:4.[_d_ac']_B/!>)! z/ .[ec'=e'] | %56
!f!!>(! (3!>![=g_a_d'=g'].[faf'].[eae'] (3:2:4.[dad']/!>)! z/ d[A=g] | %57
 (3:2:4[_cf]/ z/ .[e=ge'].[faf'] (!>![dfd']!>![ege']) | %58
 (3:2:4!>![c=ec']/ z/ .[=B=g=b].[=GBg] (3:2:4[F_Af]/ z/ =B.[GBg] | %59
 (3:2:4!tenuto!.[=Ec=e]/ z/ .[c'_f'_a'].[=gc'=e'] (3:2:4.[_d_ac']B/ z/ .[gb=e'=g'] | %60
!fff!!>(! (3!>![b_e'b']!tenuto![ae'a']!tenuto![=g_d'=g'] (3!tenuto![ebe']!tenuto![cac']!tenuto![Aea]!>)! | %61
 (3:2:4.[=G_d=g]/ z/ (!>![Bfb].[G_eg])!>(! (3:2:2!>![EBe]2 [_D_A_d]!>)! | %62
!mf! (3(!>![DFd][Ac][FB]) (3:2:5[C=G]/ z/ z .[=B,FG]/ z/ | %63
 (3:2:4.[=G,=E]/ z/!p!!>(! .[c=e=g].[=Gce] (3:2:4([_D_E_A]B,.[G,E]/)!>)! z/ | %64
!pp! (3z!<(! [F_d][__A_e]!<)!!p!!>(! (3[_cf][Ae][Fd]!>)! | %65
!pp!{/_E} (3:2:4[F,_A,_C_D]/ z/!>(! (!>![__A_c][F_A]) (3:2:2(([DF]2 [_CE]))!>)! | %66
"^P109"!>(!{DE} (3[A,D][=G,_C][A,D]!>)![K:bass] (3:2:4[C,G,]/ z/[K:treble] !>![_FBe][Ad] | %67
 (3:2:4[=Gc=g]/ z/ !>![gc'=e'].[=egc'] (3.[cea].[=Gce].[=EAc] | %68
 (3z!>(! !>![_c'f'=g'_c''][a=d'f'g'] (3:2:4.[fac'_d']/ z/ !>![_cf=gc'][A=dfg] | %69
 (3:2:4.[FA_cd]/ z/ [=B,F=G=B]!>)![A,DFG][K:bass] (3:2:4[F,A,_CD]/ z/!>(! (!>![F,=G,=B,].[D,F,A,])!>)! | %70
"_staccatissimo"{=CD} (3:2:6.[=E,C]/ z/ .[D,_B,]/z/.[F,D]/ z/ .[E,C]/ z/[K:treble]!ff! .[=g=b=d'=g']/ z/ | %71
 .[c'=e'=g'c'']/ z/ z z2 ||[K:bass]!p! (3:2:4.[E,CE].A,/ z/ z (3:2:4z .[E,CE].A,/ z/ | %73
 (3:2:4.[E,CE].A,/ z/ z (3:2:4z .[E,CE].A,/ z/ | (3:2:4.[E,CE]/.A,z.[E,CE]/ .A,/z/.[E,CE]/ z/ | %75
 (3:2:4.[E,CE]/.A,z.[E,CE]/ .A,/z/.[E,CE]/ z/ | (3:2:4.[E,CE].A,/ z/ z (3:2:4z .[E,CE].A,/ z/ | %77
 (3:2:4.[E,CE].A,/ z/ z (3:2:4z .[E,CE].A,/ z/ | (3:2:4.[E,CE].A,/z.[E,CE]/ .A,/z/.[E,CE]/ z/ | %79
 (3:2:4.[E,CE].A,/z.[E,CE]/ .A,/z/.[E,CE]/ z/ || %80
[K:treble]"^Stesso Tempo, bien rythmé""^la main droite mezzo forte laissant ressortir le chant" (3:2:4z!p! (!>![CF=G].E/) z/ (3:2:4z (!>!C.E/) z/ | %81
 (3:2:4z !>![DEF].=G,/ z/ z"^sec""_lancé" .[fbd'f']/ z/ | %82
!p! (3!>![=G,EF].[G,=DE].[G,_DE] (3!>![G,EF].[G,=DE].[G,_DE] | %83
 (3:2:4z (!>![=G,CE].F,/) z/ z"^sec""_lancé" .[cf=gc']/ z/ | %84
 (3:2:4z!p! ([CF=G].E/) z/ (3:2:4z (C.E/) z/ | %85
 (3:2:4z (!>![DEF].=G,/) z/ z"^sec""_lancé""^correction: top G♭ -> A♭" [ad'a']/ z/ | %86
!p! (3z .[DF=G].[=G,D] (3!>![G,EF].[G,=DE].[G,_DE] | %87
 (3:2:4z ([=G,CE].F,/) z/ z"^sec""_lancé" .[cf=gc']/ z/ | %88
!p! (3z ([F=GA].C) (3:2:5.[Ac]/z/([CA].F/) z/ | %89
 (3:2:5.D/z/([DF!courtesy!=G].=G,/) z/ z"^sec""_lancé" .[ad'a']/ z/ | %90
!mf! (3!>![DF].E.F (3!>!=G.F.E | !>!F2 z"^sec""_lancé""^(  )" .[eae']/ z/ | %92
!mf!!ff! (3!>!A.=G.F (3!>!G.F.E |!mf! (3!>!F.E.D (3!>!E.F.=G | %94
!mf! (3!>!F.E.D (3:2:2E2"^(     )" D | %95
[K:bass]"^correction: \nBass clef added" (3:2:4z ([=G,CE].F,/) z/ z[K:treble]"^sec""_lancé"!8va(! .[e'a'e'']/!8va)! z/ | %96
!p! (3z ([F=GA].C) (3:2:5.[Ac]/z/([CA].F/) z/ | %97
 (3:2:5.D/z/([DF=G].=G,/) z/ z"^sec""_lancé" .[bd'a']/ z/ |!mf! (3!>![DF].E.F (3!>!=G.F.E | %99
 !>!F2 z"^sec""_lancé""^(  )" .[eae']/ z/ |!mf!!ff! (3!>!A.=G.F (3!>!G.F.E | %101
!mf! (3!>!F.E.D (3!>!E.F.=G | %102
!mf!"^P111" (3!>!F.E.D (3:2:2E2"^(     )""_correction: \nBass clef added" D | %103
[K:bass] (3:2:4z ([=G,CE].F,/) z/ z[K:treble]"^sec""_lancé" .[eae']/ z/ | %104
!mf!!<(! (3!>![Aea].[_ca].[B=ga]{ab} (3[Aea](!>![=cfg].[ea])!<)! | %105
!f! !>![Bdf=gb]2 (3z"^M.D." [fgb]"_M.G." z | %106
!ff! (3!>![df=gd'].[cec'].[Bdb] (3!>![dfgd'].[cec'].[Bdb] |!ff! [Aca]2 (3z =g"_M.G." z | %108
!f!!<(! (3!>![Aea].[_ca].[B=ga]{ab} (3.[Aea]!>![=cf=g].[ea]!<)! | %109
!f! !>![Bdf=gb]2 (3z"^M.D." [fgb]"_M.G." z | %110
!ff! (3!>![Bdb].[c_fc'].[e_ge'] (3!>![dfd'].[c=gc'].[Bdb] | %111
"^M.D." [Aca]2 (3z"^M.D." [cf=g]"_M.G." z | %112
!ff! (3!>![ceac']3/2.[dd']/.[ee'] (3!>![fac'f'].[ee'].[dd'] | !>!e'2- e' z | %114
 (3!>![dfd']3/2.[e=ge']/.[faf'] (3!>![gb=g'].[faf'].[ege'] | !>!f'2- f' z | %116
!fff!!>(! (3!>![ac'e'a']3/2.[=g=g']/.[ff']!>)!!>(! (3!>![gc'g'].[ff'].[eae']!>)! | %117
!f! (3!>![f=gd'f'].[ee'].[dd']!<(! (3!>![ed'e'].[ff'].[g=g']!<)! | %118
!ff! (3!>![f=gd'f'].[ee'].[dd'] !>![cgc'][Bb] | !>!a2-!<(! a z!<)! | %120
"^P112"!<(! (3!>![ceac']3/2.[dd']/.[ee']!<)!"^correction: lower \noctave F added"!fff!!>(! (3!>![fac'f'].[ee'].[dd']!>)! | %121
!ff! !>!e'2- e' z | %122
!<(! (3!>![dfd']3/2.[e=ge']/.[faf']!<)!!fff!!>(! (3!>![gb=g'].[faf'].[ege']!>)! | %123
!ff! !>!f'2- f' z | %124
!>(! (3!>![ab=d'a']3/2.[=gc'=g']/.[fc'f'] (3!tenuto![cfc']!tenuto![Bfb]!tenuto![Aa]!>)! | %125
!mf! !>!=g z x2 | %126
"_plein et sonore"!>(! (3!>![F_A_df]3/2.[Ee]/.[_DFAd] (3!tenuto![CEc]!tenuto![A,CA]!tenuto![_B,=D_B]!>)! | %127
"_"!mp! (3:2:4z z/!mf!!>(! .[c'=d'=g']/.[!courtesy!=gc'd'] (3[c=dg][=Gce][C=DG] | %128
 (3:2:4z!>)!!p! ([EAB].=G/) z/ (3:2:4z (!>![E^FA].G/) z/ | %129
 (3:2:4z !>![F=G!courtesy!=A].=B,/ z/ z"_lancé" [=b=d'_a'=b']/ z/ | %130
!p! (3!>![=B,_A_B].[B,=GA].[B,FG] (3!>![B,AB].[B,GA].[B,FG] | %131
 (3:2:4!>!C([E^FA].C/) z/ z"^sec""_lancé" .[e=g=bc'e']/ z/ | %132
"_cres." (3:2:4z!p! ([EAB].=G/) z/ (3:2:4z ([=A,E_G].F,/) z/ | %133
 (3:2:4!>!F[_C_AB].E/ z/ z"^sec""_lancé" [a_c'e'a']/ z/ | %134
!mf! (3!>![A=de].[=G_cd].[Fcd] (3!>![Ade].[Gcd].[Fcd]"_" | %135
 (3:2:5e/z/([=C=D=G].=G,/) z/ z"^sec" .[be'b']/ z/ |!mf! (3!>![E=G].[=DG].[^CG]{G=A} (3!>!G._G.=G | %137
"^P113" !>!=A2[I:staff +1] (.E/[I:staff -1] z/"^sec" .[=g=c'=g']/) z/ | %138
 (3[^Fe].[F=d].[Fc] (3[c^f].[_Bf].[Af] | (3:2:4.[=G=d=g]/ z/ ([=Ad].F) (3([dg]=a[dg=d']) | %140
 (3!>![Bb].[^cb].[=db]{bc'} (3!>![_db].[=c_a].[_fb] | %141
 (3:2:5!tenuto![cebc']/ z/ ([_GBe].C/) z/[I:staff +1] (.e/[I:staff -1] z/"^sec" .[be'b']/) z/ | %142
 (3(!>![e__be'][dd'][cc']) (3:2:4.[_f_b_f']/z/(!>![dg][c=a]) | %143
!ff! (3:2:5[B=dfb]/ z/ z/ [FBd]/[dfg] (3.[fb=d'].[dfg].[fd'f'] | %144
!ff! (3(!>![Gceg]!>![_cg_c']!>![ee']) (!>![gc'g']!>![be'g']) | %145
 !>![ga=d'g'][a_c'a']/ z/!ff! (3:2:5.[_c=df]/z/z"^sec".[fc'f']/ z/ | %146
 (3(!>![ege'][f__bf'][ee']) (!>![dfd'][_cb_c']) | %147
 (!>![ef_be'].[fbf']/) z/"^sec" (3:2:5.[_c=d_a]/ z/ z"^sec" .[=df=d']/ z/ | %148
!>(! (3(!>![_ceg_c'][_de_d'][cc']) (!>![Beb][=A=a]) | %149
 (!>![_c=df_c'][Bfb]) (3:2:5[B,_C=D]/z/z[F=df]/!>)! z/ | %150
!mf! (3(!>![EG_ce][F__Bdf][Ece]) (3[DF]A[=A,EG] | !tenuto![B,=DFB]2 z .[=df=d']/ z/ | %152
 (3[_dfa]_c[Fe] (3E[__B,FA][EG] |[M:1/4] (3[EGA]^C[=DF] | (3:2:5([_CE]=A,/) z/ .[Bfb]/ z/ | %155
 (3[_CE][_DF][CE] |[K:bass] (3DB,E | %157
[M:2/4]"^P114"!>(! (3[G,D]=A,[F,_B,]!>)![K:treble] (3:2:5(!>![E-=A-d][EAc]/) z/ .[F=df]/ z/ | %158
[K:bass]!f!!<(! (3!>![E,G,_C][CE][K:treble][EG] .[G_c]/!<)! z/"^sec" .[ge'f'g']/ z/ | %159
[K:bass] (3!>![D,F,].[B,D].[DF][K:treble] [FB]/ z/"^sec" .[fd'e'f']/ z/ | %160
[K:bass] (3!>![_C,E,].[G,_C].[CE][K:treble] .[GB]/ z/"^sec" .[e=a_c'd']/ z/ | %161
[K:bass] (3z[K:treble]"^correction: \nTreble clef added" (!>![B,=D=E].F,) .[F=df]/z/.[f=d'f']/ z/ | %162
!8va(! (3:2:4[f'=d''f'']/!p! z/!8va)![Q:1/4=95] .[f=c'=d'f'].[=dbc'] (3:2:4.[cdf]!>!=D/ z/ .[cfc'] | %163
 (3!>![B=db].[=A=a].[=Gd=g] (3:2:4[Fdf]/ z/!>(! (=E.[Fd])!>)! | %164
 (3:2:4.[^c=df]/ z/ !>![db][B=a] (3:2:2=g2 f |!p! [=Ae=a]2 [_E_e]2 | %166
 (3:2:4[^c=a^c']/ z/ !>![=A^ca].[Aca] (3:2:5.[Aca]/ z/ z !>![Bgb]/ z/ | %167
 (3!>![=Ace=a].[=G=g].[=F=f] (3:2:4[Ee]/ z/ (!>![ec']_g) | %168
 (3:2:4[fe']/ z/[Q:1/4=94]!>(! [c=a][A_g] (3:2:2d2 c | %169
[Q:1/4=93] (3([_Bd_fg]=c_e)[Q:1/4=90] d z!>)! | %170
"_poco cres."[Q:1/4=95]!p! (3:2:4.[fc'f']/ z/!<(! .[dfc'].[cf] (3:2:4.[Fcd]D/ z/ .[cfc'] | %171
"_cres." (3!>![Bdb].[Ada].[Gdg] (3:2:4.[Fdf]/ z/ (!>!=E[Fd]) | %172
 (3:2:4[d_f=f]/ z/ !>![dfd'].[dfd'] .[dfd']/ z/ .[ee'] | %173
 (3!>![d_f__bd'][_cf_c'][__B__b] (3!>![__A__a]B[Acd] | %174
"^sec" (3:2:4[__A__B_f__b]/!<)! z/ !>![f_f'].[ff'] ([fbf'].[gg']) | %175
!ff!"^P115" (3:2:4[_f__bd'_f']/ z/!mf! [__e__a_c'][da__b] (3[_c__ea]__A[__Bde] | %176
 (3:2:4[_c=d=g]/ z/!ff!!<(! !>![ff'].[ff'] (!>![f_c'f'].[_gg'])!<)! | %177
 (3:2:4[_f__bd'_f']/ z/!ff!!<(! [_F__A__B][ABd] (3[Bdf][df__a][fa__b]!<)! | %178
 (3:2:4[__a__bd']/ z/ [=gd'=g'][gd'g'] (3:2:2[gd'g']2 [__b_f'__b'] | %179
 (3:2:4!tenuto!.[_ad'f'_a']/ z/"^sans pressez"!f! !tenuto!.[Ad]!tenuto!.[df] .[fa]/ z/ .[_fd']/ z/ | %180
 !>!d'2 x2 | (3!>![fbc'][=ed'][_ec'] (!>![cb].[ga]) | %182
 (!>!b2"_gracieux"[I:staff +1] (3a)[I:staff -1] (!>![df].[A_g]) | %183
{/=c'} (3!>![_cfb].a.[cfb] a/ z/"^sec" .[=dfb=d']/ z/ | %184
 (3([=g_g']c'[_ge'] (3:2:4.=c/) z/ (!>![_Ge].[Af]) | %185
 (3!>![=Bg].[ca].[=ea] .[ec'=e']/ z/"^sec" .[cg]/ z/ | %186
 (3([=g_g']__b[fd'] (3:2:4F/) z/ ([c=e=g].f) | %187
{/d'} (3[=df_c'].b"_cresc.".[dfc'] b/ z/"^sec" .[bf'b']/ z/ | %188
 (3!>![=a_c'g']b[=A_ce] (3:2:4B/ z/ (!>![=df=a].g) | %189
{/d'} (3[ebd'].c'.[ebd'] c'/ z/"^sec"!ff!!8va(! .[c'g'c'']/!8va)! z/ | %190
 (3[=gc'=e']=e[fa] (3:2:4[Fc]/ z/"_cresc." (!>![=e=bc'].f) | %191
"^P116"!p! (3(!>![_gd'=f'][c'e'][gd'f']) (3:2:4.[c'e'] z .[e__b]/ z/ | %192
"_cres. poco a poco"!<(! (3(!>![__ae'g'][_d'_f'][ae'g']) (3:2:4.[d'f'] z .[_f_b]/ z/!<)! | %193
!mp!!8va(! (3(!>![_a=e'=g'][=d'f'][ae'g']) (3:2:4[d'f'] z .[f_c']/ z/ | %194
!mp! (3!>![__bf'_a'][_e'_g'][bf'a'] (3:2:4[e'g'] z [g=c']/ z/ | %195
"_cres."!mf! (3(!>![_b_g'__b'][=e'=g'][bg'b']) (3:2:4[f'a'] z .[ad']/ z/ | %196
!f! (3([__b_g'][_b__a'][__a_f'])!8va)! (3(!>![_f_d'][d_b][__B__a]) | %197
!ff!!<(! (3[__Ae_g][d_f][f__a] (3[g__b][=g_b][bd']!<)! | %198
!fff! (3(!>![__ad'_f'][__be'g'][ad'f']) (3:2:4([_b__b']__a'/)z/.[d__b_c'] | %199
 (3:2:4!tenuto![_ad'=f'_a']/ z/!ff!!>(! !>![df][fa] (3:2:2((!>![ad']2 [_fbe'])) | %200
 (3:2:4[e__bc']/ z/ !>![ce][eg] (3:2:2((!>![ebc']2 [_f_bd'])) | %201
 (3:2:4[d=g_b]/ z/ .[d_f].[f=g] (3:2:2!>![dgb]2 [dfbc']!>)! | %202
 (3:2:4!tenuto![Acea]/ z/ [=G,CE][I:staff +1]A,[I:staff -1] (3.[=DAc][I:staff +1]F[I:staff -1][EAce] | %203
 (3[c'e'a'c''][K:bass]!p! .[E,A,]!<(!.[A,C][K:treble] (3.[CE].[EA].[FB]!<)! | %204
"^poco rall."!mp!!>(! (3:2:4.[DG]/ z/ (!>![Gc][FB]) .[DG]!p!.[CF]!>)! | %205
!mp!!>(! (3:2:4[B,E]/ z/ (!>![CG].[DA]) (!>![CF][G,E])!>)! | %206
[K:bass]"^a Tempo""^narquois,  sec et canaille" (3:2:4z!pp! (!>![E,B,C].A,/) z/ (3:2:4z (!>!F,.A,/) z/ | %207
"^P117" (3:2:4z (!>![G,A,B,]C,/) z/[K:treble] (z .[Begb]/) z/ | %208
[K:bass]!p! (3!>![C,A,B,].[C,=G,A,].[C,_G,A,] (3!>![C,A,B,].[C,=G,A,].[C,_G,A,] | %209
 (3:2:4z (!>![C,F,A,].B,,/) z/[K:treble] (z"^sec" .[Fcdf]/) z/ | %210
[K:bass] (3:2:4z!p! (!>![F,B,C]A,/) z/ (3:2:4z (!>!F,.A,/) z/ | %211
 (3:2:4z (!>![G,A,B,].C,/) z/[K:treble] z"^sec" .[dgbd']/ z/ | %212
[K:bass]!p! (3z .[G,B,C].[C,G,] (3!>![C,A,B,].[C,=G,A,].[C,_G,A,] | %213
 (3:2:4z (!>![C,F,A,].B,,/) z/[K:treble] (z"^sec" .[Fcdf]/) z/ | %214
[K:bass]!p!"_poco cres." (3z !>![B,CD]F, (3:2:5[DF]/z/!>![F,D].B,/ z/ | %215
 (3:2:5G,/z/(!>![G,B,C].C,/) z/[K:treble] (z"^sec" .[dgd']/) z/ | %216
[K:bass]!mf! (3!>!B,.A,.B, (3!>!C.B,.A, | B,2[K:treble] (z"^sec" .[ad'a']/) z/ | %218
[K:bass]!mf! (3!>!D.C.B, (3!>!C.B,.A, |"^correction: DCB->BAG" (3!>!B,A,.G, (3!>!A,B,.C | %220
 (3!>!B,A,.G, (3:2:2!>!F,2 E, | (3:2:4z (!>![C,D,F,].B,,/) z/[K:treble] z x | %222
"^leggiero sans ralentir"!f! (3!>![FAdf]3/2.[Gg]/.[Aa] (3!>![Bdfb][Aa][Gg] | a2- a z | %224
!mf! (3!>![GBg]3/2.[Aca]/.[Bdb] (3!>![cec'].[Bdb].[Aca] | b2- b z | %226
"^P118"!ff! (3.[ad'f'a'].[ee'].[fad'f'] (3!>![gad'g'].[ff'].[ee'] | %227
 (3.[dfd']!>![ead'e'].[ff'] (3!>![gad'g'].[ff'].[ee'] | %228
 (3.[dfad'].[ee'].[fad'f'] (3!>![gad'g'].[ff'].[ee'] | %229
 (3:2:4.[fad'f']/!fff! z/ .[__A_cf].[cf_a] [__a_c'f']/ z/!8va(! .[d'f'a'd'']/!8va)! z/ | %230
!fff! (3!>![Gdg].[Bb].[dd'] (3:2:2(!>![gg']2 .[gd'g']) | %231
 ([g_c'e'g'][ac'e'a']-) [ac'e'a']/ z/"^sec" .[gc'g']/ z/ | %232
 (3!>![f__bd'f'].[gg'].[ff'] !>![e_b_c'e'].[dbd'] | %233
 (3.[egbe'] .[CGB].[cgb] .[gc'd']/ z/"^sec"!8va(! .[g'd''g'']/!8va)! z/ | %234
 (3!>![__Bde__b].[_c_c'].[Bb] !>![Adea].[Gg] | %235
 (3.[fad'f'] .[f__bd'].[dfb] (3.[F__Bd].[DFB].[F,__B,D] | %236
[K:bass] (3!>![E,G,_C].[__F,__B,D].[A,_F] .[__F,B,D]/ z/ .[E,_C]/ z/ | %237
 (3:2:4.[F,A,D]/ z/ !>![F,D][F,D]{DE} (3!>![F,D][E,_C][F,D] | %238
 (3:2:4!tenuto![G,E]/ z/[K:treble] .[EF_c].[cfg] .[ef!courtesy!_c']/ z/ .[ege']/ z/ | %239
[K:bass] (3:2:4.[F,A,D]/ z/ !>![F,D].[F,D]{DE} (3[F,D][E,_C].[F,D] | %240
 (3:2:4!tenuto![G,E]/ z/[K:treble] .[EF_c].[cfg] .[ef_c']/ z/ .[ege']/ z/ | %241
[K:bass] (3:2:4.[F,A,D]/ z/ !>![F,D][F,D]{DE} (3!>![F,D][E,_C].[F,D] | %242
 (3!>![_CE].[A,D].[G,C] (3!>![CE].[A,D].[G,C] | %243
[K:bass] (3!>![A,D].[G,_C].[CE] .[A,D]/ z/[K:treble]!fff! .[a=c'g'a']/ z/ | %244
!fff!!8va(! (3:2:4[d'f'a'd'']/!8va)! z/!fff!!<(! .[C=E=F].[EFB] (3.[c=ef].[EFB].[cef] | %245
 (3.[efb].[cef].[efb]!<)!!fff! (3.[c'e'=f'].[efb].[ae'f'] | %246
!fff!!>(! (3.[d'=e'b'].[c'e'f'].[e=fb] (3.[cef].[=EFB].[CEF]!>)!"_" | %247
[K:bass]"^P119"!f!!>(! (3.[=E,F,B,].[C,E,F,].[E,F,B,] [C=EF]/ z/ z!>)! | z4 | %249
[K:treble] (3z"^avec grâce"!8va(! .[d'f'd''].[d'f'd''] .[d'f'd'']/ z/ .[e'=g'e'']/ z/ | %250
 (3!>![d'f'd''].[_c'e'_c''].[__bd'__b'] [__ac'__a']-[ac'a']/ z/ | %251
 (3z !>![_c'e'_c'']!>(!.[__bd'__b'] .[__ac'__a']/!8va)!!>)! z/ .[f__bf']/ z/ | %252
!>(! (3!>![e=ge'].[dfd']!>)!.[_ce_c'] [dfd']-[dfd']/ z/ | %253
!ppp! (3z .[dfd'].[dfd'] .[dfd']/ z/ .[e=ge']/ z/ | %254
!>(! (3!>![dfd'].[_ce_c']!>)!.[__Bd__b] [__Ac__a]-[Aca]/ z/ | %255
!ppp! (3z !>![_ce_c']!>(!.[__Bd__b] .[__Ac__a]/!>)! z/ .[FBf]/ z/ | %256
!>(! (3!>![E=Ge].[DFd]!>)!.[_CE_c] [DFd]-[DFd]/ z/ | %257
!ppp! (3z .[__B,__D__B].[B,DB] .[B,DB]/ z/ .[_A,_C_A]/ z/ | %258
[K:bass]!>(! (3!>![G,__B,G].[F,A,F]!>)!.[E,G,E] !>![_D,F,_D]-[D,F,D]/ z/ | %259
[K:treble]!ppp! (3z .[_C__E_c].[D_Fd] .[__B,__D__B]/ z/ .[A,_CA]/ z/ | %260
[K:bass]!>(! (3!>![G,__B,G].[=F,A,=F]!>)!.[E,G,E] !>![_D,F,_D]-[D,F,D]/ z/ | %261
!ppp! (3z .[_C,E,_C].[C,E,C] .[C,E,C]/ z/ .[E,G,E]/ z/ | %262
!>(! (3!>![E,G,E].[D,F,D]!>)!.[_C,E,_C] .[D,F,D]/ z/ .[F,A,F]/ z/ | %263
!ppp!!>(! (3!>![E,G,E].[F,A,F]!>)!.[E,G,E] .[D,F,D]/ z/ .[_C,E,_C]/ z/ | %264
 (3:2:4.[D,F,D]/!ppp! z/[K:treble] !>![C=EB].F [CEB]/z/.F/ z/ | (3[C=EB].F.[CEB] F/z/[CEB]/ z/ | %266
!>(! (3F.[C=EB]!>)!.F [CEB]/z/F/ z/ | (3[C=EB]!>(!.F.[CEB]!>)! .F/ z/!fff! [ac'g'a']/ z/ | %268
 [d'f'a'd'']/ z/ z z2 |] %269
V:2
!f!"_ sonore"!ped! !tenuto![D,,D,]2- !fermata![D,,D,] !>!A,!ped-up! | %1
[K:treble]"_"!f!!ped! (3!tenuto!.D!tenuto!.F!tenuto!.A .c/!ped-up! z/"_" .[B=g]/ z/ | %2
"_"!ped! (3_g__Be e'/!ped-up! z/"_"!ped! .[Ed]/!ped-up! z/ | %3
[K:bass]"_"!ped! (3A,,G,C (3E[K:treble]G!ped-up!c |!ped! z2 x2!ped-up! | %5
"_" (3A,.=D.A =d/ z/!ped! x!ped-up! |!ped! x2 (3:2:4[A,A]/!ped-up! z/ c=G | %7
"_" (3A,._G.c .a/ z/"_" .[A=e]/ z/ |!ped! x4!ped-up! | (3A,.=D.A =d/ z/!ped! x!ped-up! | %10
 x2 (3:2:4[A,A]/ z/ !>!c.=G | (3!>!A,._G.c[I:staff -1] [=ec'=e']/[I:staff +1] z/"_" .[A=e]/ z/ | %12
"_"!ped! x2 (3:2:4[A,A]/!ped-up! z/"_marcato" (!>!F!ff!G) | %13
"_"!ped! (3(!>!B.A.A)!ped-up!"_"!ped!{/x} !>!A!>!g!ped-up! | %14
"_"!ped! !>![GA]!>![Aga]!ped-up![K:bass]"_" (3z[K:treble]"_add accent \nand slur \nlike bar12" (!>!EF) | %15
"_"!ped! (3(!>!GAA)!ped-up!!ped!{/x} !>!A!>!g!ped-up! | %16
[K:bass]"_"!ped! !>![DA][K:treble]!>!a[K:bass]"_" (3:2:4B,/!ped-up! z/!ped! !>!FG!ped-up! | %17
[K:treble]"_"!ped! (3(!>!BAA){/x} !>!A!ped-up!!>!g | %18
"_"!ped! !>![GA]!>![ga][K:bass] (3z[K:treble] E!ped-up!F | (3(_GAA){/x} !>!A!>!g | %20
[K:bass]"_""_toutes les pédales bien tenues" (3z[K:treble]!ped! (d'a (3:2:2!>!d2)!ped-up! z | %21
[K:bass]"_"!ped! (3z[K:treble]!ff! (!>!d.d (3:2:2!>!d2!ped-up! e |[M:1/4] (3:2:4.d/) z/ AA, | %23
 (3dAf |[M:2/4][K:bass]"_()"!ff! (3z[K:treble]!>(! .d.c .B.A!>)! | %25
[M:1/4] (3:2:4.[ga]/ z/[K:bass] [D,A,][K:treble]G | (3AG[__A_f] | %27
[M:2/4][K:bass]"_"!ff! (3z[K:treble]!f!!<(! !>!c!>!c !>!c!>!d!<)! |[M:1/4] (3:2:4.c/ z/ _Ag | %29
 (3:2:2c'2!f! !>!g |[M:2/4]!ped! (3z[K:treble] !>!c!>!B !>!A!>!f | %31
 (3:2:4a/!ped-up! z/ !>!d'!>!a (3:2:2!>!d2 z | %32
!ped! (3z"_en dehors"!f!!<(! !>!d.d (3:2:2(!>!d2 .e)!<)! | (3:2:4!>!d/!ped-up! z/!mf! AA, (3dAf | %34
[K:bass]!f!!ped! (3z[K:treble]"_add accent" !>!d!>!c!ped-up!"_" (3:2:2(!>!B2 [Ad]) | %35
"_" (3:2:4[_GB]=G/ z/ d"_" (3B.d.g |[K:bass] (3z[K:treble] Cc (3B=G.A | %37
 (3F[K:bass][K:treble].D.E[K:bass] (3C"_"C,B, | (3z CC,[K:treble] (3:2:4.c/ z/ aF | %39
 (3:2:4.a'/ z/ !>!f'!>!d' (3:2:2!>!a2"^"[I:staff -1] =g | %40
[I:staff +1] (3z"_marcato"!ff!!<(! !>!A.c (3:2:2(!>!f2!<)! =g) | (3:2:4f/ z/!mf! _d_c"_" (3_B=GA | %42
 (3z!ped!!f! !>!b.a"_" (!>!=g"_"!>!=f) | (3:2:4.[=e=g]/ z/!p! Bd (3=cA_c | %44
 (3z!ped!!mf! =e=g (3!fermata!f_d_e!ped-up! | (3:2:4[B=e]/ z/!p! =F-B (3=e_d=g | %46
 (3z!ped!!mf! !>!e!ped-up!!>!d!<(! (3(!>!c.d).d'!<)! | %47
 (3:2:4.a'/ z/ !>!f'!>!d' (3:2:2!>!a2"^"[I:staff -1] =g | %48
[I:staff +1] (3z!ped!!f!!<(! !>!A.c (3:2:2(!>!f2!ped-up! =g)!<)! | %49
 (3:2:4.a/!ped! z/!mf! fc (3Aca!ped-up! | (3z!f!!ped!!<(! (!>!a.b) (3:2:2(!>!g2 __e)!ped-up!!<)! | %51
 (3:2:4.[_Gc]/ z/!mf! c'g (3bac' | %52
 (3z!ped-up!!ped! !tenuto!.b!tenuto!.a (3!tenuto!.f!tenuto!.e!tenuto!.c | %53
 (3!tenuto!.B!tenuto!.A!tenuto!.F (3:2:2(!>!E2 =D) | %54
!ped! (3z!ped-up! !tenuto!.A!tenuto!.F (3:2:4=G/!ped-up! z/!ped! ([^Fe]G) | %55
"^sec" (3:2:4._e'/ z/!ped-up!"_"!ped! ._d'._a"_"!ped-up!!ped! (3:2:4!>!_f-f/ z/"_" .[cb] | %56
 (3z!ped! (!>!dA) (3!>!=g!tenuto!f!ped-up!!tenuto!e | %57
 (3:2:4d/ z/[K:bass]"_"!ped! A,_C[K:treble] (3F=G=B!ped-up! | %58
!<(! (3z!ped!!ped-up! (!>!e.f) (!>!d.e)!<)! | %59
 (3:2:4[C=G]/ z/!ped-up!!ped! ._d'._a"_" (3:2:4_f-f/ z/ .[c'd'] | %60
 (3z!ped! !tenuto!c'!tenuto!b (3!tenuto!=g!tenuto!e!tenuto!c!ped-up! | %61
 (3:2:4B/ z/!ped! (!>!_d.B) (3:2:2(=G2 F)!ped-up! | %62
!ped! (3z!ped! ([CE][D=G] (3:2:4=E)=G,._D/ z/!ped-up! | %63
[K:bass] (3:2:4.[C,C]/ z/[K:treble] d_A (!>!_F._D/) z/ | (3z!ped! _A_c (3_dc_A!ped-up! | %65
[K:bass] (3:2:4[=C,,=C,]/ z/ _E_D (3_C_A,=G, | %66
[K:bass]"_" (3(!>!F,D,F,) (3:2:4.=E,/ z/[K:treble]"_" (!>![=C=G][=B,=F] | %67
"_" (3:2:4[C=E]/) z/!mp!!>(! !>!d'.a (3.d.A.=G!>)! | %68
 (3z!mf!!>(! !>!_e'._c' (3:2:4.=g/ z/ !>!e._c | %69
 (3:2:4=G/!>)! z/[K:bass]!mp! !>!E!mp!._C (3:2:4=G,/ z/ (!>!E,._C,) | %70
 (3:2:6.[=C,,=G,,]/ z/ .[_B,,,F,,]/z/.[D,,A,,]/ z/ .[C,,=G,,]/ z/"_" .[G,,=G,]/ z/ | %71
"_" .[C,,C,]/ z/ z z2 || %72
[K:bass]"_sans pédale,  narquoisement" (3:2:4.[A,,A,].E,/ z/ z (3:2:4z .[A,,A,].E,/ z/ | %73
 (3:2:4.[A,,A,].E,/ z/ z (3:2:4z .[A,,A,].E,/ z/ | %74
 (3:2:4.[A,,A,]/.E,z.[A,,A,]/ .E,/z/.[A,,A,]/ z/ | %75
"_correction: \nrhythm like previous bar" (3:2:4.[A,,A,]/.E,z.[A,,A,]/ .E,/z/.[A,,A,]/ z/ | %76
 (3:2:4.[A,,A,].E,/ z/ z (3:2:4z .[A,,A,].E,/ z/ | %77
 (3:2:4.[A,,A,].E,/ z/ z (3:2:4z .[A,,A,].E,/ z/ | %78
 (3:2:4.[A,,A,].E,/z.[A,,A,]/ .E,/z/.[A,,A,]/ z/ | %79
 (3:2:4.[A,,A,].E,/z.[A,,A,]/ .E,/z/.[A,,A,]/ z/ || %80
!mf! (3!>!A,"_bien en dehors".A,.A,{A,B,} (3A,(!>!=G,A,) | %81
 (3:2:2B,2 z E,/ z/[K:treble]!ff!"^sec" [ea]/ z/ | %82
[K:bass]"^P110"!mf!!ped! (3[A,,E,D]!ped-up!.C.B, (3.D.C.B, | %83
"_" [A,,E,A,] z"_" !>!E,,[K:treble]"^sec"!ff!.[EAe]/ z/ | %84
[K:bass]!mf!!ped! (3!>![A,,E,A,]!ped-up!.A,.A,{A,B,} (3A,(!>!=G,A,) | %85
"_" !tenuto![A,,E,B,]2 E,,[K:treble]"^sec"!ff!.[efb]/ z/ | %86
[K:bass]"_"!mf! (3[A,,E,B,].C.E (3.D.C.B, |"_" [A,,E,A,] z"_" !>!E,,[K:treble]!ff!.[EAe]/ z/ | %88
[K:bass]"_"!mf! (3[A,,E,C].D.E"^M.D."{F=G} (3!>!F"^M.G.".E.D | %89
"_" [B,,E,E]2"_" E,,[K:treble]!ff!"^sec".[efb]/ z/ | %90
[K:bass]"_"!p![I:staff -1] (3=G[I:staff +1].D.=G,[I:staff -1] (3:2:4[DA]/[I:staff +1]z/.D.G, | %91
"_"[I:staff -1] (3:2:5C/[I:staff +1]z/[I:staff -1]([F=GA]C/)[I:staff +1] z/"_" x2[K:treble] | %92
[K:bass]"_"!p![I:staff -1] (3C[I:staff +1].E.C"_"[I:staff -1] (3A,[I:staff +1].C.A, | %93
"_"!p![I:staff -1] (3D[I:staff +1].=G,.E,"_"[I:staff -1] (3=G,[I:staff +1].D.=A, | %94
"_"!p![I:staff -1] (3B,[I:staff +1].D.E,"_"[I:staff -1] (3F,=G,E, | %95
"_"[I:staff +1] z4[K:treble] |[K:bass]"_"!mf! (3[A,,E,C]DE"^M.D."{F=G} (3!>!F"^M.G."ED | %97
"_" [B,,E,E]2"_" E,,[K:treble]!ff!"^sec".[efb]/ z/ | %98
[K:bass]"_"!p![I:staff -1] (3=G[I:staff +1].D.=G,"_"[I:staff -1] (3:2:4[DA]/[I:staff +1]z/.D.G, | %99
"_"[I:staff -1] (3:2:5C/[I:staff +1]z/[I:staff -1]([F=GA]C/)[I:staff +1] z/"_" x2[K:treble] | %100
[K:bass]"_"!p![I:staff -1] (3C[I:staff +1].E.C"_"[I:staff -1] (3A,[I:staff +1].C.A, | %101
"_"!p![I:staff -1] (3D[I:staff +1].=G,.E,"_"[I:staff -1] (3=G,[I:staff +1].D.=A, | %102
"_"!p![I:staff -1] (3B,[I:staff +1].D.E,"_"[I:staff -1] (3F,=G,E, | %103
"_"[I:staff +1] x4[K:treble] | %104
[K:bass]"_"!ped! (3[A,,E,C]!ped-up![K:treble] ([F=d][_F_d] (3:2:4[E=c]/) z/ .e.c' | %105
[K:bass]!ped! [A,,E,]2- [A,,E,]!ped-up![K:treble] z | %106
[K:bass]"_"!<(! (3z[K:treble] !tenuto!=d!tenuto!e (3!tenuto!_f!tenuto!=f!tenuto!=g!<)! | %107
[K:bass]"_" [A,,E,]2- [A,,E,][K:treble] z | %108
[K:bass] (3[A,,E,C][K:treble] ([F=d][K:treble][_F_d] (3:2:4[E=c]/) z/ .e.c' | %109
[K:bass]"_" [A,,E,]2- [A,,E,][K:treble] z |[K:bass]"_"!<(! (3z[K:treble] d=G (3!>!=g.d._f!<)! | %111
[K:bass]"_" [A,,E,]2- [A,,E,][K:treble] z | %112
[K:bass] (6:4:6(A,,/=D,/F,/E,/A,/C/ (6:4:6A,,/[K:treble]=D/E/A/c/e/) | %113
[K:bass]"_" (3:2:4z[K:treble] z/ .e/.e (3.E.e.e' | %114
[K:bass]"_" (6:4:6A,,/=D,/E,/=G,/_D/=D/ (6:4:6E/_F/=D/[K:treble]E/=G/_d/ | %115
[K:bass] (3:2:4z[K:treble] z/ .e/.e (3.E.e.e' | %116
[K:bass]"_" (6:4:6(A,,/=D,/E,/A,/C/E/)[K:treble]!<(! (6:4:6(A/_D/=D/E/A/c/)!<)! | %117
[K:bass]"_" (6:4:6(A,,/=D,/E,/=G,/E/=G/)[K:treble] (6:4:6B/=A/c/B/d/E/ | %118
[K:bass]!ped! (6:4:6=D,/E,/=E,/F,/^F,/=G,/[K:treble] (6:4:6([=DE]/_F/__A/!ped-up![K:treble]F/_d/_E/) | %119
[K:bass]"_" (3:2:4z[K:treble] z/ .e/.e (3.E.e.e' | %120
[K:bass]"_" (6:4:6(A,,/=D,/F,/E,/A,/C/ (6:4:6A,,/[K:treble]=D/E/A/c/e/) | %121
[K:bass]"_" (3:2:4z[K:treble] z/ .e/.e (3.E.e.e' | %122
[K:bass]"_""_correction: \ntie added"!<(! (6:4:6A,,/=D,/E,/=G,/_D/=D/ (6:4:6E/_F/=D/[K:treble]E/=G/_d/!<)! | %123
[K:bass]"_" (3:2:4z[K:treble] z/ .e/.e (3.E.e.e' | %124
[K:bass]"_"!<(! (6:4:6A,,/=D,/E,/A,/C/=D/[K:treble] (6:4:6A/=D/(c/A/)[I:staff -1]=d/[I:staff +1][K:bass]{/=G,,}[I:staff -1]c/!<)! | %125
[I:staff +1][K:treble]!f!!>(!{/x} (3!>!e3/2.=d/.c (3!tenuto!_B!tenuto!_A!tenuto!=G!>)! | %126
[K:bass]"_"!mp! (6:4:6(D,,/=G,,/A,,/F,/=G,/A,/)"_" (6:4:6!>!A,/F,/=D/^F,/(G,/G,,/) | %127
[K:bass]"_" (3:2:4z[K:treble] z/!>(! .e'/.^f (3.e.^F.E | %128
[K:bass]!mf! (3!>!C!>)!"_bien en dehors".C.C{C=D} (3C(=B,.C) | %129
 !>![C,=G,=D]2 C,[K:treble]!ff!"^sec" .[cf=g]/ z/ | %130
[K:bass]!mf!!ped! (3!>!F._E.=D (3!>!F!ped-up!.E.D | %131
"_" [C,=G,E] z"_" !>!=G,,[K:treble]"^sec"!ff!.[=Gc]/ z/ |[K:bass]!mf! (3!>!C.C.C (3!>!C.=D.E | %133
!ped! [B,,,B,,]!ped-up! z[K:treble] _c/z/"^sec"!ff!.[f=g]/ z/ | %134
[K:treble] (3!>!_c[K:bass][K:treble].B.A (3!>!c.B.A | %135
[K:bass]"_" !>![E,,=G] z"_" B,,,[K:treble]!ff!.[Bd=e=g]/ z/ | %136
[K:bass]!ped! (3z[K:treble] B,!ped-up!E (3!>!B.E.=A | %137
[K:bass]!ped! =D,,!ped-up! z[K:treble]"_" z"^sec"!ff! .[=Ae=a]/ z/ | %138
"_"!mf! (3c.B.=A"_" (3_e.=d.c |"_" (3:2:4.B/ z/ c=D (3B=db | (3=D.=d.=g (3_F._f._g | %141
[K:bass]"_" =F,, z[K:treble]"_" z"_sec"!ff! .[cgc']/ z/ | %142
[K:bass]"_"!mf![I:staff -1] (3(=g[I:staff +1][K:treble]f_e) (3:2:4[da]/z/([B_f].[=Fe]) | %143
[K:bass]"_" (3:2:4z z/[K:treble] =G/.B (3.=g.B.b | %144
[K:bass]"_" (3z[K:treble] [E__B]_c (3[Bd]e[c__b] | %145
[K:bass]"_" (3z[K:treble] ([F=d]B)"_" (3:2:4(_d=d)"_" [d=a]/ z/ | %146
[K:bass]"_" (3z[K:treble]!<(! ([_B,_C]G (3[__Be]fg)!<)! | %147
[K:bass]"_" (3z[K:treble] [=A^c=d]._B"_" (3:2:4(g.F)"_" .b/ z/ | %148
[K:bass]"_" (3z[K:treble] ([G,_C]E (3G_ce) | %149
[K:bass]"_" (3z[K:treble] [F,^C]=D"_" (3:2:5GF,/ z/ B/ z/ | %150
[K:bass]"_" (3z[K:treble] [B,_C]G (3:2:2[=Ad]2 _c | %151
[K:bass]"_" (3:2:4z[I:staff -1] ([B,=DG].F,/)[I:staff +1] z/[K:treble]"_" .F/ z/"_" .b/ z/ | %152
[K:bass]"_" (3[G,_C][K:treble](E!<(!G (!>!_c!<)!.c)) |[M:1/4] (_cB/) z/ | %154
"_" (3:2:4[B,G]/ z/ z"_" .[F=d] | (3(!>!ABA) | (!>!G.F) | %157
[M:2/4][K:bass] (!>!E=D/) z/[K:treble]"_" (3:2:5.[B,G]/ z/ z .B/ z/ | %158
[K:bass]"_" (3z"_avec grâce et aisément" .G,._C E/[K:treble] z/"^sec""_" .[a_c']/ z/ | %159
[K:bass]"_" (3z!<(! .F,.B, D/!<)! z/"^sec" [B,D]/ z/ | %160
[K:bass]"_" (3z .E,.G, _C/ z/[K:treble]"^sec" .[Bg]/ z/ | %161
[K:bass] (3:2:4z[K:treble] G/ z/ z .B/z/.b/ z/ | %162
 (3:2:4b/[K:bass] z/[K:treble]"_gracieux" .b.f (3:2:2!>!B2 .[F=d] | %163
[K:bass]"_2  " (3z[K:treble]!p! BB (3:2:2(!>!B2 c) | %164
 (3:2:4.B/[K:bass]"_2  ""^" z/[K:treble] (F.F,) (3(BF)=d | %165
[K:bass]"_2  " (3z[K:treble] B=A (!>!=G.F) | %166
 (3:2:4[ef]/[K:bass]"^" z/[K:bass] [B,,F,]E[K:treble] (3FE[_Fd] | %167
[K:bass]"_" (3z[K:treble] .=A.A (!>!A.B) | %168
 (3:2:4=A/[K:bass]"^" z/[K:treble] Fe (3:2:2!>!f2 [e=a] | %169
[K:bass]"_" (3z[K:treble] (!>!AG) .[FB].d | %170
 (3:2:4d'/[K:bass]"^" z/[K:treble] bd (3:2:2B2"^" .[Fd] | %171
[K:bass]"_" (3z[K:treble] .B.B (!>!B.c) | (3:2:4B/[K:bass]"^" z/[K:treble] [B,=E]=F (3=ABf | %173
[K:bass]"_"!<(! (3z[K:treble] !>!dd (!>!de)!<)! | (3!>!d[K:bass][K:treble]_c__B (3[__Ad]B__a | %175
[K:bass]!ped! (3z[K:treble]!ff! !>!_f!ped-up!.f (!>!f.g) | (3:2:4_f/ z/ [_c__e]__B (3(__Ac).[ea] | %177
[K:bass]"_" (3z[K:treble] _D_F (3__A__B_d | (3:2:4_f/ z/ __af"_" (3(_c'bd') | %179
[K:bass]!ped! (3[A,,,A,,][K:treble] !tenuto!.F!ped-up!!tenuto!.A .c/ z/"_" .[B=g]/ z/ | %180
"_" (3(g__Be) .e'/ z/"_" (.[Ed__b]/ z/) |[K:bass]"_" (3(A,,G,C (3E[K:treble]Gc) |"_" z2 x2 | %183
"_" (3A,=DA =d/ z/"^sec" .g/ z/ |"_" !>![EAca]>A- (3:2:4[A,A]/ z/ c=G | %185
 (3A,_Gc .a/ z/"^sec" [A=e]/ z/ |"_" [DAda]>A- (3:2:4[A,A]/ z/ da | %187
"_" (3!>!A,FA =d/ z/"^sec" .[ad']/ z/ |"_" [A,Ge](g/ z/ (3G) e.b | %189
"_" (3A,.=G.c =e/ z/"_sec" .[be']/ z/ |"_" !>![A,Fa]>(c (3:2:4.A/) z/ =ga | %191
"_" (3(!>!__Bge (3__bgc') |"_" (3(!>!B__a_f (3_b=g_d') |"_"!<(! (3(!>!__B_ae (3_c'a=d')!<)! | %194
"_"!<(! (3(!>!=c__bg (3c'=ae')!<)! |"_" (3(!>!d_b=g (3d'b_f') |"_" (3(e'_f'd') (3(b__a_f) | %197
"_" (3(B__Ad (3e_f__a) |"_" (3(!>!b=c'b) (3:2:4(!>!d'b/z/_f') | %199
[K:bass]"_"!fff! (3z[K:treble] Ad (3fA=g | (3:2:4g/ z/ __B[K:bass][K:treble]c (3gA__a | %201
 (3:2:4_f/ z/ _B[K:bass][K:treble]d (3_fA=g |[K:bass]"_"!f! x4 | %203
[K:treble] (3:2:4a/[K:bass][K:treble] z/[K:bass]"_" .C,.E, (3.A,.C.D | %204
"_" (3:2:4B,/ z/ (ED) B,A, | (3:2:4G,/ z/"_" (B,C) (3A,"_"z[K:treble]A | %206
[K:bass]!p!"_sans pédale" (3!>!D,.D,.D,{D,E,} (3D,C,D, | %207
 [D,,A,,E,]2 A,,/ z/[K:treble]!ff! [Ad]/ z/ |[K:bass]"^M. D."!mf! (3!>!G,.F,.E, (3!>!G,.F,.E, | %209
 .[D,,A,,D,] z A,,,[K:treble]!ff! .[A,DA]/ z/ |[K:bass]!mf! (3!>!D,.D,.D,{D,E,} (3D,(!>!C,D,) | %211
 [D,,A,,E,]2 A,,/ z/[K:treble]!ff! .[ABe]/ z/ |[K:bass]!mf! (3E,!mf!.F,.A, (3.G,.F,.E, | %213
 [D,,A,,D,] z A,,,[K:treble]!ff! .[A,DA]/ z/ |[K:bass]!mf! (3!>!F,.G,.A,"_"{B,C} (3!>!B,.A,.G, | %215
 [E,,A,,A,]2 .A,,,[K:treble]!ff! .[ABe]/ z/ | %216
[K:bass]!p![I:staff -1] (3[G,C][I:staff +1].G,.C,[I:staff -1] (3[G,D][I:staff +1].G,.C, | %217
[I:staff -1] (3:2:5F,/[I:staff +1]z/[I:staff -1]([B,CD]F,/)[I:staff +1] z/"_" x2[K:treble] | %218
[K:bass]!p![I:staff -1] (3F,[I:staff +1].A,.F,[I:staff -1] (3D,[I:staff +1].F,.D, | %219
[I:staff -1] (3G,[I:staff +1].C,.A,,"^(     )"[I:staff -1] (3C,[I:staff +1].G,.=D, | %220
[I:staff -1] (3E,[I:staff +1].G,.A,,[I:staff -1] (3=B,,.C,[I:staff +1].A,, | %221
 !>![D,,A,,D,] z (.A,,,[K:treble]"^sec"!ff![I:staff -1] .[ad'a']/)[I:staff +1] z/ | %222
[K:bass]!mp! (3:2:6D,,/=G,,/B,,/A,,/D,/F,/ (3:2:6A,/_F,/=F,/A,/D/F/ | %223
 (3:2:4z[K:treble] z/!ff! .A/.A (3.A,.A.a | %224
[K:bass]!mp! (3:2:6(D,,/=G,,/)A,,/C,/G,/=G,/ (3:2:6A,/__B,/G,/A,/C/_G/ | %225
 (3:2:4z[K:treble] z/ .A/.A (3.A,.A.a |[K:bass]"_"!ped! (3:2:4z!ped-up! z/ _C/C{CD} (3!>!CB,C | %227
 (3:2:4A/ z _C/C{CD} (3!>!CB,C | (3:2:4_c/ z _C/C{CD} (3!>!CB,C | %229
"_"!ped! (3z[K:treble] _Ad _a/ z/[K:bass] [_C,,_C,]/!ped-up! z/ | %230
"_"!ped! (3z[K:treble] (!>![DG].B) (3!>![=Ad]!ped-up!Bb | %231
[K:bass]!ped! (3z[K:treble] !>![A,E]G _c/ z/ [ea]/ z/!ped-up! | %232
[K:bass]"_" (3D,_CD[K:treble] (3F_cf |[K:bass]"_" (3z[K:treble] Dc b/ z/ b'/ z/ | %234
[K:bass] (3D,E,__B,[K:treble] (3DE__B |[K:bass] (3z[K:treble] .a.e (3.A.E.A, | %236
[K:bass]!ped! (3z (A,._C) (3A,!ped-up!.A,,.G, | %237
!ped! (3:2:4[D,,D,]/ z/!ped-up!"_sans pédale" !>![D,A,].[D,A,] (3!>![D,A,].[_C,G,].[D,A,] | %238
"_" (3:2:4!tenuto![_C,_C]/ z/[K:treble] .G.e .g/ z/ .[_cg_c']/ z/ | %239
[K:bass]!ped! (3:2:4[D,,D,]/!ped-up! z/ !>![D,A,].[D,A,] (3!>![D,A,].[_C,G,].[D,A,] | %240
"_" (3:2:4!tenuto![_C,_C]/ z/[K:treble] .G.e .g/ z/ .[_Ag_c']/ z/ | %241
[K:bass]!ped! (3:2:4[D,,D,]/!ped-up! z/ !>![D,A,][D,A,] (3!>![D,A,][_C,G,][D,A,] | %242
!ped! (3[_C,G,]!ped-up!.[D,F,][A,,E,]!ped-up!!ped! (3[C,G,].[D,F,].[A,,E,] | %243
[K:bass] (3[D,F,].[_C,E,].[A,,G,] [D,F,]/ z/"_" [A,,,A,,]/ z/ | %244
[K:bass]"_" (3z[K:treble] .A,.D (3.A.D.A | (3.d[K:bass][K:treble].A.d (3.a.d.a | %246
 (3.d[K:bass][K:treble].A.d (3.a.d.a |[K:bass] (3.D,.A,,.D, A,/ z/ [A,,,A,,]/!mf! z/ | %248
 (3!>![D,,,D,,]!pp!.A,,,.[D,,,D,,] .A,,,/z/.[D,,,D,,]/ z/ | %249
 (3!>!A,,,.[D,,,D,,].A,,, .[D,,,D,,]/z/.A,,,/ z/ | %250
 (3!>![D,,,D,,].A,,,.[D,,,D,,] .A,,,/z/.[D,,,D,,]/ z/ | %251
 (3!>!A,,,.[D,,,D,,].A,,, .[D,,,D,,]/z/.A,,,/ z/ | %252
 (3!>![D,,,D,,].A,,,.[D,,,D,,] .A,,,/z/.[D,,,D,,]/ z/ | %253
 (3!>!A,,,.[D,,,D,,].A,,, .[D,,,D,,]/z/.A,,,/ z/ | %254
 (3!>![D,,,D,,].A,,,.[D,,,D,,] .A,,,/z/.[D,,,D,,]/ z/ | %255
 (3!>!A,,,.[D,,,D,,].A,,, .[D,,,D,,]/z/.A,,,/ z/ | %256
 (3!>![D,,,D,,].A,,,.[D,,,D,,] .A,,,/z/.[D,,,D,,]/ z/ | %257
 (3!>!A,,,!>(!.[D,,,D,,].A,,, .[D,,,D,,]/z/.A,,,/!>)! z/ | %258
 (3!>![D,,,D,,].A,,,.[D,,,D,,] .A,,,/z/.[D,,,D,,]/ z/ | %259
!>(! (3!>!A,,,.[D,,,D,,].A,,, .[D,,,D,,]/z/.A,,,/ z/!>)! | %260
 (3!>![D,,,D,,].A,,,.[D,,,D,,] .A,,,/z/.[D,,,D,,]/ z/ | %261
 (3!>!A,,,.[D,,,D,,].A,,, .[D,,,D,,]/z/.A,,,/ z/ | %262
 (3!>![D,,,D,,].A,,,.[D,,,D,,] .A,,,/z/.[D,,,D,,]/ z/ | %263
 (3!>!A,,,.[D,,,D,,].A,,, .[D,,,D,,]/z/.A,,,/ z/ | %264
 (3:2:4.[D,,,D,,]/"_bien détaché, sans pédale" z/[K:treble] .[A,A].D .[A,A]/z/.D/ z/ | %265
 (3!>![A,A].D.[A,A] .D/z/.[A,A]/ z/ | (3!>!D.[A,A].D .[A,A]/z/.D/ z/ | %267
 (3!>![A,A].D.[A,A] .D/ z/[K:bass] .[A,,,A,,]/ z/ | [D,,,D,,]/ z/ z z2 |] %269
V:3
 z4 | z4 | z4 | z4 | z4 | z4 | z4 | z4 | z4 | z4 | z4 | z4 | z4 | z4 | z4 | z4 | x4 | x4 | x4 | %19
 x4 | z4 | z4 |[M:1/4][K:bass] x2 | z2 |[M:2/4][K:bass] z4 |[M:1/4][K:bass] x2 | z2 |[M:2/4] z4 | %28
[M:1/4][K:bass] x2 | z2 |[M:2/4]!ff!"_" [D,,A,,]4- | [D,,A,,] z (3:2:2z2[K:treble] [Af] | %32
[K:bass]"_" !>![D,,A,,]4- | [D,,A,,]2- [D,,A,,]/ z/ z | z4 | z4 | z4 | z4 |"_" [F,,C,]4- | %39
 [F,,C,] z z[K:treble]"_" .[ca] |[K:bass]"_" [F,,C,]4- | [F,,C,] z z2 | %42
[K:bass] !>!F,,2- F,,/ z/ z | z4 |!ff!"_" !>![F,,C,]4- | [F,,C,] z z2 | %46
 !>![F,,C,]2- [F,,C,]/ z/ z | z2 z[K:treble]"_" .[ca] |[K:bass]"_" !>![F,,C,]4- | %49
"_" !>![F,,C,] z z2 |[K:bass]"_" !>!G,,4- | G,, z z2 | !>!=G,,4- | =G,,4 |"_" =C,,4- | %55
 C,,/ z/ z z2 |"_" !tenuto![C,,C,]4- | [C,,C,]/ z/ z x2 |"_" !>![C,,=G,,]4- | %59
 .[C,,G,,]/"_" z/ z z2 |"_" !>![C,,C,]4- | [C,,C,]4 |"_" [C,,=G,,]4- | [C,,G,,]/ z/ z z2 | %64
"_"!p! [C,,C,]4- | [C,,C,]4 | z4 | z4 |"_"!f! [C,,C,]4- | [C,,C,]4 | z4 | z4 || z4 | z4 | z4 | %75
 z4 | z4 | z4 | z4 | z4 || z4 | z4 | z4 | z4 | z4 | z4 | z4 | z4 | z4 | z4 | z4 | z4 | z4 | z4 | %94
 z4 | z4 | z4 | z4 | z4 | z4 | z4 | z4 | z4 | z4 | z4 | z4 | z4 | z4 | z4 | z4 | z4 | z4 | z4 | %113
 z4 | z4 | z4 | z4 | z4 | z4 | z4 | z4 | z4 | z4 | z4 | z4 | z4 | z4 | z4 | z4 | z4 | z4 | z4 | %132
 z4 | z4 | z4 | z4 | z4 | z4 | z4 | z4 | z4 | z4 | z4 | z4 | z4 | z4 | z4 | z4 | z4 | z4 | z4 | %151
 z4 | z4 |[M:1/4][K:bass]"_" B,,2 | z2 |[K:bass]"_" B,,2 | z2 |[M:2/4] z4 | z4 | z4 | z4 | z4 | %162
 z4 | z4 | z4 | z4 | z4 | z4 | z4 | z4 | z4 | z4 | z4 | z4 | z4 | z4 | z4 | z4 | z4 | z4 | z4 | %181
 z4 | z4 | z4 | z4 | z4 | z4 | z4 | z4 | z4 | z4 | z4 | z4 | z4 | z4 | z4 | z4 | z4 | z4 | z4 | %200
 z4 | z4 | z4 | z4 | z4 | z4 | z4 | z4 | z4 | z4 | z4 | z4 | z4 | z4 | z4 | z4 | z4 | z4 | z4 | %219
 z4 | z4 | z4 | z4 | z4 | z4 | z4 | z4 | z4 | z4 | z4 | z4 | z4 | z4 | z4 | z4 | z4 | z4 | z4 | %238
 z4 | z4 | z4 | z4 | z4 | z4 | z4 | z4 | z4 | z4 | z4 | z4 | z4 | z4 | z4 | z4 | z4 | z4 | z4 | %257
 z4 | z4 | z4 | z4 | z4 | z4 | z4 | z4 | z4 | z4 | z4 | z4 |] %269
V:4
 x4 | x4 | eg [d__b]/ z/ .[gbd'g']/ z/ | x4 |{bc'} (3:2:4f=ec/ z/ z x | x3 .[=df=b=d']/ z/ | %6
 (3[=g_g']c'[_ge'] x2 | x4 | (3!>![=g_g']a[fd'] x2 | x3 .[=df=b=d']/ z/ | (3[=g_g']=c'[_ge'] x2 | %11
 x2 x/ x/ z | (3!>![=g_g']a[fd'] x2 | x4 | x4 | x4 | x4 | x4 | x4 | x4 | x4 | x4 |[M:1/4] x2 | %23
 (3[=e_f]cd |[M:2/4] (3z!mf! [=gg'][_ga] (3z c=e |[M:1/4] x2 | x2 |[M:2/4] x4 |[M:1/4] x2 | %29
 (3gA.[A=e] |[M:2/4] (3z [=gad'f'][df] (3z (Ad) | x4 | x4 | z2 (3[=ef]cd | x4 | x4 | x4 | x4 | x4 | %39
 x4 | x4 | x4 | x4 | x4 | x4 | x4 | x4 | x4 | x4 | x4 | x2 (3[ca]__e[Bg] | x4 | x4 | x4 | x4 | x4 | %56
 x4 | x4 | x4 | x4 | x4 | x4 | x4 | x4 |{[_A,_C]_D} !>![A,C=F]4 | x4 | %66
 x2[K:bass] x2/3[K:treble] x4/3 | x4 | !>![F,A,_CD]4- | [F,A,CD]4[K:bass] | x3[K:treble] x | x4 || %72
[K:bass] x4 | x4 | x4 | x4 | x4 | x4 | x4 | x4 ||[K:treble] x4 | x4 | x4 | x4 | x4 | x4 | x4 | x4 | %88
 x4 | x4 | x4 | x4 | x4 | x4 | x2 (3:2:2!>!C2[I:staff +1] !>!B, | %95
[I:staff -1][K:bass] x3[K:treble]!8va(! x/!8va)! x/ | x4 | x4 | x4 | x4 | x4 | x4 | %102
 x2 (3:2:2!>!C2[I:staff +1] !>!B, |[I:staff -1][K:bass] x3[K:treble] x | x4 | %105
 (3:2:4z z/[I:staff +1] E/"_M.G."[I:staff -1][DF=G] (3ed[I:staff +1].e' |[I:staff -1] x2 x2 | %107
 (3:2:4z z/!mf![I:staff +1] E/[I:staff -1][CF=G] (3.e[cf][I:staff +1].e' | x4 | %109
[I:staff -1] (3:2:4z z/[I:staff +1] E/"_M.G."[I:staff -1][DF=G] (3ed[I:staff +1]e' | %110
[I:staff -1] x2 x2 | (3:2:4z z/[I:staff +1] E/"_M.G."[I:staff -1][CF=G] (3.ec[I:staff +1].e' | x4 | %113
[I:staff -1] (6:4:6([d=g]/d'/f/g/d/f/ (6:4:6=G/d/F/G/d/g/) | x4 | %115
 (6:4:6([fac']/c'/=g/f/c/=G/ (6:4:6[CF]/G/c/f/[gac']/f/) | x4 | x4 | x4 | %119
 (6:4:6([Ac]/=g/c/f/=G/c/ (6:4:6([CF]/G/)([cf]/g/c'/f/)) | x4 | %121
 (6:4:6([d=g]/d'/f/g/d/f/ (6:4:6=G/d/F/G/d/g/) | x4 | %123
 (6:4:6([fac']/c'/=g/f/c/=G/ (6:4:6[CF]/G/c/f/[gc']/b/) | x4 | %125
 (6:4:6[=G=d]/=B/c/a/[_e^f]/=g/ (6:4:6[^f_e'=f']/c'/[=f=d']/d/[=Be]/c/ | x4 | !>![CE=Gc]4 | x4 | %129
 x4 | x4 | x4 | x4 | x4 | x4 | E2 x2 | x2 ^C2 | (3:2:4z ([=CG].=G,/) z/ x2 | x4 | x4 | x4 | x4 | %142
 x4 | x4 | x4 | x4 | x4 | x4 | x4 | x4 | x4 | x4 | x4 |[M:1/4] x2 | x2 | x2 |[K:bass] (3E,B,__C | %157
[M:2/4] x2[K:treble] x2 |[K:bass] x4/3[K:treble] x8/3 |[K:bass] x2[K:treble] x2 | %160
[K:bass] x2[K:treble] x2 |[K:bass] !tenuto![F,,=D,]4[K:treble] |!8va(! x2/3!8va)! x10/3 | x4 | %164
 x2 (3[^c=d]=AB | (3z [=e_e'][_ef] (3z =A^c | x4 | x4 | x2 (3_G__BF | (3=FB=A (3=EG=F | x4 | x4 | %172
 x4 | x4 | x4 | x4 | x4 | x4 | x4 | x4 | (eg) [d__b]/ z/ .[gd'g']/ z/ | x4 | %182
{bc'} (3:2:4f=ec/ z/ z x | x4 | x4 | x4 | x4 | x4 | x4 | x3!8va(! x/!8va)! x/ | x4 | x4 | x4 | %193
!8va(! x4 | x4 | x4 | x2!8va)! x2 | x4 | x4 | x4 | x4 | x4 | x4 | x2/3[K:bass] x4/3[K:treble] x2 | %204
 x4 | x4 |[K:bass] x4 | x2[K:treble] x2 |[K:bass] x4 | x2[K:treble] x2 |[K:bass] x4 | %211
 x2[K:treble] x2 |[K:bass] x4 | x2[K:treble] x2 |[K:bass] x4 | x2[K:treble] x2 |[K:bass] x4 | %217
 x2[K:treble] x2 |[K:bass] x4 | x4 | x2 (3:2:2A,2 G, | x2[K:treble] x2 | x4 | %223
 (3:2:6[Gc]/g/B/c/G/B/ (3:2:6C/G/B,/C/G/c/ | x4 | %225
 (3:2:6[Bdf]/f/c/d/F/C/ (3:2:6[F,B,]/C/F/B/(!>![c=ef]/d/) | x4 | x4 | x4 | x3!8va(! x/!8va)! x/ | %230
 x4 | x4 | x4 | x3!8va(! x/!8va)! x/ | x4 | x4 |[K:bass] x4 | x4 | x2/3[K:treble] x10/3 | %239
[K:bass] x4 | x2/3[K:treble] x10/3 |[K:bass] x4 | x4 |[K:bass] x3[K:treble] x | %244
!8va(! x/3!8va)! x11/3 | x4 | .x4 |[K:bass] x4 | x4 |[K:treble] x2/3!8va(! x10/3 | x4 | %251
 x5/2!8va)! x3/2 | x4 | x4 | x4 | x4 | x4 | x4 |[K:bass] x4 |[K:treble] x4 |[K:bass] x4 | x4 | x4 | %263
 x4 | x2/3[K:treble] x10/3 | x4 | x4 | x4 | x4 |] %269
V:5
 x4 |[K:treble] x4 | x4 |[K:bass] A,,2- A,,[K:treble] z | !tenuto![DA]2- (3:2:4[DA]/ z/ (=G.d) | %5
 !>!A,2 x x/ x/ | x4 | A,2 x2 | [DAd] z (3:2:4[A,A]/ z/ (=G.d) | !>!A,2 x x/ x/ | x4 | A,2 x2 | %12
 [DAd] z x2 | [D,A,] z z2 | [E,A,C] z[K:bass] (3:2:4A,,/ z/[K:treble] x x | [E,A,C] z z2 | %16
[K:bass] [D,A,][K:treble] z[K:bass] (3:2:2(A,, A,2) |[K:treble] [D,A,] z z2 | %18
 [E,A,C] z[K:bass] A,,/ z/[K:treble] z | [E,A,C] z z2 | %20
[K:bass] !>![D,,A,,]2[K:treble] [B,F]"_" [Af] |[K:bass] [D,,A,,]4-[K:treble] | %22
[M:1/4][I:staff +1] [D,,A,,][I:staff -1] z | x2 |[M:2/4][K:bass] !>![D,,A,,]4-[K:treble] | %25
[M:1/4][I:staff +1] [D,,A,,][K:bass][I:staff -1] z[K:treble] | x2 | %27
[M:2/4][K:bass] [D,,_A,,]4-[K:treble] |[M:1/4][I:staff +1] [D,,A,,][I:staff -1] z | x2 | %30
[M:2/4] x2/3[K:treble] x10/3 | x4 | x4 | x4 |[K:bass] =E,,[K:treble] x x2 | x4 | %36
[K:bass] C,,4-[K:treble] | (5:4:2x/[K:bass]"_" C,,2[K:treble][K:bass] (3:2:2(C C,2) | %38
 x2[K:treble] x2 | x4 | x4 | z2 F2 | x4 | x4 | x4 | x2 (3:2:2(F2 F) | x4 | x4 | x4 | x4 | x4 | x4 | %52
 x4 | x2 (3:2:2(E =G,2) | x4 | x4 | x4 | (3:2:2z[K:bass] (C,2[K:treble][I:staff +1] C,2) | x4 | %59
 x4 | x4 |[I:staff -1] x2 (3:2:2=G C2 | x4 |[K:bass] x2/3[K:treble] x10/3 | (x/4x/4 x7/2) | %65
[K:bass] z4 |[K:bass] C,2 x2[K:treble] | x4 | x4 | x2/3[K:bass] x10/3 | x4 | x4 ||[K:bass] x4 | %73
 x4 | x4 | x4 | x4 | x4 | x4 | x4 || [A,,E,] z z2 | [A,,E,] z z2[K:treble] |[K:bass] x4 | %83
 x3[K:treble] x |[K:bass] x4 | x3[K:treble] x |[K:bass] x4 | x3[K:treble] x |[K:bass] x2 E,, z | %89
 x3[K:treble] x |[K:bass] [B,,E,] z E,, z | [A,,E,] z E,,[K:treble]"^sec"!ff!.[c=g]/ z/ | %92
[K:bass] [A,,E,] z E,, z | [B,,E,] z E,, z | =G,, z E,, z | %95
 !>![A,,E,A,] z"^(      )""_""_correction: \ntreble clef added" E,,[K:treble]"^sec"!ff!.[e=gac']/ z/ | %96
[K:bass] x2 E,, z | x3[K:treble] x |[K:bass] [B,,E,] z E,, z | %99
 [A,,E,] z E,,[K:treble]"^sec"!ff!.[c=g]/ z/ |[K:bass] [A,,E,] z E,, z | [B,,E,] z E,, z | %102
 =G,, z E,, z | !>![A,,E,A,] z"_" E,,[K:treble]"^sec"!ff!.[e=gac']/ z/ | %104
[K:bass] x2/3[K:treble] x10/3 |[K:bass] x3[K:treble] x | %106
[K:bass]{/=D,} [A,,E,][K:treble]"_marcato" z z2 |[K:bass] x3[K:treble] x | %108
[K:bass] x2/3[K:treble] x/3[K:treble] x3 |[K:bass] x3[K:treble] x | %110
[K:bass]{/E,} [A,,_F,][K:treble]"_marcato" z z2 |[K:bass] x3[K:treble] x | %112
[K:bass] A,,2 A,,[K:treble] z |[K:bass] [A,,E,]4[K:treble] |[K:bass] A,,2- A,,2[K:treble] | %115
[K:bass] [A,,E,]4[K:treble] |[K:bass] A,,4[K:treble] |[K:bass] A,,4[K:treble] | %118
[K:bass] A,,2[K:treble] x2[K:treble] |[K:bass] [A,,E,]4[K:treble] |[K:bass] A,,2- A,,[K:treble] z | %121
[K:bass] !tenuto![A,,E,]4[K:treble] |[K:bass] A,,2- A,,[K:treble] z | %123
[K:bass] !tenuto![A,,E,]4[K:treble] |[K:bass] A,,4[K:treble][K:bass] |[K:treble] x4 | %126
[K:bass] D,,2 =G,,2 |[K:bass] [C,,=G,,]4[K:treble] |[K:bass] [C,=G,] z z2 | x3[K:treble] x | %130
[K:bass] [C,=G,] z z2 | x3[K:treble] x |[K:bass] [C,=G,] z [=A,,F,] z | x2[K:treble] x2 | %134
[K:treble] x4[K:bass][K:treble] |[K:bass] x3[K:treble] x |[K:bass] E,,4[K:treble] | %137
[K:bass] x2[K:treble] x2 | =D,2 D2 | =G,4 | =G, z _G, z |[K:bass] x2[K:treble] x2 | %142
[K:bass] F,,[K:treble] z z2 |[K:bass] !>![B,,,B,,]4[K:treble] |[K:bass] [B,,,B,,]4[K:treble] | %145
[K:bass] [B,,,B,,]4[K:treble] |[K:bass] [B,,,B,,]4[K:treble] |[K:bass] [B,,,B,,]4[K:treble] | %148
[K:bass] [B,,,B,,]4[K:treble] |[K:bass] [B,,,B,,]4[K:treble] |[K:bass] [B,,,B,,]4[K:treble] | %151
[K:bass] [B,,,B,,]4[K:treble] |[K:bass] B,,4[K:treble] |[M:1/4] x2 | x2 | x2 | x2 | %157
[M:2/4][K:bass] B,,4[K:treble] |[K:bass] !>![B,,,B,,]4[K:treble] |[K:bass] !>![B,,,B,,]4 | %160
[K:bass] !>![B,,,B,,]4[K:treble] |[K:bass] !tenuto![B,,,B,,]4-[K:treble] | %162
 (3:2:2x/[K:bass] [B,,,B,,][K:treble] z z2 |[K:bass] [B,,,F,,]4-[K:treble] | %164
 (3:2:2x/[K:bass] [B,,,F,,][K:treble] x z2 |[K:bass] [B,,,F,,]4-[K:treble] | %166
 (3:2:2x/[K:bass] [B,,,F,,][K:bass] z[K:treble] z2 |[K:bass] [B,,,F,,]4-[K:treble] | %168
 (3:2:2x/[K:bass] [B,,,F,,][K:treble] z z2 |[K:bass] [B,,,F,,]4-[K:treble] | %170
 (3:2:2x/[K:bass] [B,,,F,,][K:treble] z z2 |[K:bass] [B,,,F,,]4-[K:treble] | %172
 (3:2:2x/[K:bass] [B,,,F,,][K:treble] z z2 |[K:bass] [=G,,,=G,,]4-[K:treble] | %174
 (3:2:2x/[K:bass]"^" [G,,,G,,][K:treble] z z2 |[K:bass] [=G,,,=G,,][K:treble] z z2 | x4 | %177
[K:bass] !tenuto![=G,,,=G,,][K:treble] z z2 | x4 |[K:bass] x2/3[K:treble] x10/3 | x4 | %181
[K:bass] A,,2- A,,[K:treble] z | !tenuto![DA]2- (3:2:4[DA]/ z/ =G.d | !>!A,2 x2 | x4 | A,2 x2 | %186
 x4 | x4 | x4 | A,2 x2 | x4 | A,4 | A,4 | A,4 | A,4 | A,4- | A,4 | A,4 | _A z (3_f z =g | %199
[K:bass] [A,,,A,,]4-[K:treble] | (5:4:2x[K:bass]"_" [A,,,A,,]4-[K:treble] | %201
 (5:4:2x[K:bass]"_" [A,,,A,,]4[K:treble] |[K:bass] !tenuto![A,,,A,,]4- | %203
[K:treble] (3:2:2x/4[K:bass] [A,,,A,,]/[K:treble] z/[K:bass] x x2 | A,,2- (3:2:2A,, A,,2- | %205
 (3A,,/ z/ A,,2- (3:2:2A,, A,,2[K:treble] |[K:bass] [D,,A,,] z z2 | x3[K:treble] x | %208
[K:bass] [D,,A,,] z z2 | x3[K:treble] x |[K:bass] [D,,A,,] z z2 | x3[K:treble] x | %212
[K:bass] [D,,A,,] z z2 | x3[K:treble] x |[K:bass] [D,,A,,] z A,,, z | x3[K:treble] x | %216
[K:bass] [E,,A,,] z A,,, z | !>![D,,A,,D,] z A,,,[K:treble]!ff! .[Acdf]/ z/ | %218
[K:bass] [D,,A,,] z A,,, z | [E,,A,,] z A,,, z | C,, z A,,, z | x2 x[K:treble] .[Acdf]/ z/ | %222
[K:bass] D,,2- D,, z | !tenuto![D,,A,,]4[K:treble] |[K:bass] D,,2- D,, z | %225
 !tenuto![D,,A,,]4[K:treble] |[K:bass] [_C,,_C,]4- | [C,,C,]4- | [C,,C,]4 | %229
 [_C,,_C,]3[K:treble][K:bass] z | [B,,,B,,]4[K:treble] |[K:bass] [A,,,A,,]4[K:treble] | %232
[K:bass] [D,,D,]4[K:treble] |[K:bass] [G,,D,]4[K:treble] |[K:bass] G,,4[K:treble] | %235
[K:bass] [A,,,A,,]4[K:treble] |[K:bass] [C,,A,,]4 | x4 | x2/3[K:treble] x10/3 |[K:bass] x4 | %240
 x2/3[K:treble] x10/3 |[K:bass] x4 | x4 |[K:bass] x4 |[K:bass] [D,,,D,,]4-[K:treble] | %245
 (9:8:2x/[K:bass]"_" [D,,,D,,]4-[K:treble] | (9:8:2x/[K:bass] [D,,,D,,]4-[K:treble] | %247
[K:bass] [D,,,D,,]2- [D,,,D,,]/ z/ x | x4 | x4 | x4 | x4 | x4 | x4 | x4 | x4 | x4 | x4 | x4 | x4 | %260
 x4 | x4 | x4 | x4 | x2/3[K:treble] x10/3 | x4 | x4 | x3[K:bass] x | x4 |] %269
V:6
 x4 |[K:treble] x4 | x4 |[K:bass] x8/3[K:treble] x4/3 | x4 | x4 | x4 | x4 | x4 | x4 | x4 | x4 | %12
 x4 | x4 | x2[K:bass] x2/3[K:treble] x4/3 | x4 |[K:bass] x[K:treble] x[K:bass] x2 |[K:treble] x4 | %18
 x2[K:bass] x2/3[K:treble] x4/3 | x4 |[K:bass] x2/3[K:treble] x10/3 | %21
[K:bass] x2/3[K:treble] x10/3 |[M:1/4] x2 | x2 |[M:2/4][K:bass] x2/3[K:treble] x10/3 | %25
[M:1/4] x2/3[K:bass] x2/3[K:treble] x2/3 | x2 |[M:2/4][K:bass] x2/3[K:treble] x10/3 |[M:1/4] x2 | %29
 x2 |[M:2/4] x2/3[K:treble] x10/3 | x4 | x4 | x4 |[K:bass] x2/3[K:treble] x10/3 | x4 | %36
[K:bass] x2/3[K:treble] x10/3 | x2/5[K:bass] x4/15[K:treble] x4/3[K:bass] x2 | x2[K:treble] x2 | %39
 x4 | x4 | x4 | x4 | x4 | x4 | x4 | x4 | x4 | x4 | x4 | x4 | x4 | x4 | x4 | x4 | x4 | x4 | %57
 x2/3[K:bass] x4/3[K:treble] x2 | x4 | x4 | x4 | x4 | x4 |[K:bass] x2/3[K:treble] x10/3 | x4 | %65
[K:bass] x4 |[K:bass] x8/3[K:treble] x4/3 | x4 | x4 | x2/3[K:bass] x10/3 | x4 | x4 ||[K:bass] x4 | %73
 x4 | x4 | x4 | x4 | x4 | x4 | x4 || x4 | x3[K:treble] x |[K:bass] x4 | x3[K:treble] x | %84
[K:bass] x4 | x3[K:treble] x |[K:bass] x4 | x3[K:treble] x |[K:bass] x4 | x3[K:treble] x | %90
[K:bass] x4 | x3[K:treble] x |[K:bass] x4 | x4 | x4 | x3[K:treble] x |[K:bass] x4 | %97
 x3[K:treble] x |[K:bass] x4 | x3[K:treble] x |[K:bass] x4 | x4 | x4 | x3[K:treble] x | %104
[K:bass] x2/3[K:treble] x10/3 |[K:bass] x3[K:treble] x |[K:bass] x2/3[K:treble] x10/3 | %107
[K:bass] x3[K:treble] x |[K:bass] x2/3[K:treble] x/3[K:treble] x3 |[K:bass] x3[K:treble] x | %110
[K:bass] x2/3[K:treble] x10/3 |[K:bass] x3[K:treble] x |[K:bass] x7/3[K:treble] x5/3 | %113
[K:bass] x2/3[K:treble] x10/3 |[K:bass] x3[K:treble] x |[K:bass] x2/3[K:treble] x10/3 | %116
[K:bass] x2[K:treble] x2 |[K:bass] x2[K:treble] x2 |[K:bass] x2[K:treble] x[K:treble] x | %119
[K:bass] x2/3[K:treble] x10/3 |[K:bass] x7/3[K:treble] x5/3 |[K:bass] x2/3[K:treble] x10/3 | %122
[K:bass] x3[K:treble] x |[K:bass] x2/3[K:treble] x10/3 | %124
[K:bass] z2[K:treble] (6:4:3x/ =D2[K:bass] x/ |[K:treble] x4 |[K:bass] x4 | %127
[K:bass] x2/3[K:treble] x10/3 |[K:bass] x4 | x3[K:treble] x |[K:bass] x4 | x3[K:treble] x | %132
[K:bass] x4 | x2[K:treble] x2 |[K:treble] (9:8:2x/[K:bass]"_" B,,,4[K:treble] | %135
[K:bass] x3[K:treble] x |[K:bass] x2/3[K:treble] x10/3 |[K:bass] x2[K:treble] x2 | x4 | x4 | x4 | %141
[K:bass] x2[K:treble] x2 |[K:bass] x2/3[K:treble] x10/3 |[K:bass] x[K:treble] x3 | %144
[K:bass] x2/3[K:treble] x10/3 |[K:bass] x2/3[K:treble] x10/3 |[K:bass] x2/3[K:treble] x10/3 | %147
[K:bass] x2/3[K:treble] x10/3 |[K:bass] x2/3[K:treble] x10/3 |[K:bass] x2/3[K:treble] x10/3 | %150
[K:bass] x2/3[K:treble] x10/3 |[K:bass] x2[K:treble] x2 |[K:bass] x2/3[K:treble] x10/3 | %153
[M:1/4] x2 | x2 | x2 | x2 |[M:2/4][K:bass] x2[K:treble] x2 |[K:bass] x5/2[K:treble] x3/2 | %159
[K:bass] x4 |[K:bass] x3[K:treble] x |[K:bass] x2/3[K:treble] x10/3 | %162
 x/3[K:bass] x/3[K:treble] x10/3 |[K:bass] x2/3[K:treble] x10/3 | x/3[K:bass] x/3[K:treble] x10/3 | %165
[K:bass] x2/3[K:treble] x10/3 | x/3[K:bass] x/3[K:bass] x4/3[K:treble] x2 | %167
[K:bass] x2/3[K:treble] x10/3 | x/3[K:bass] x/3[K:treble] x10/3 |[K:bass] x2/3[K:treble] x10/3 | %170
 x/3[K:bass] x/3[K:treble] x10/3 |[K:bass] x2/3[K:treble] x10/3 | x/3[K:bass] x/3[K:treble] x10/3 | %173
[K:bass] x2/3[K:treble] x10/3 | x/3[K:bass] x/3[K:treble] x10/3 |[K:bass] x2/3[K:treble] x10/3 | %176
 x4 |[K:bass] x2/3[K:treble] x10/3 | x4 |[K:bass] x2/3[K:treble] x10/3 | x4 | %181
[K:bass] x8/3[K:treble] x4/3 | x4 | x4 | x4 | x4 | x4 | x4 | x4 | x4 | x4 | x4 | x4 | x4 | x4 | %195
 x4 | x4 | x4 | x4 |[K:bass] x2[K:treble] (3:2:2A A2- | (3A/ z/ A2-[K:bass][K:treble] (3:2:2A A2- | %201
 (3A/ z/ A2-[K:bass][K:treble] (3:2:2A A2 |[K:bass] x4 | %203
[K:treble] x/6[K:bass] x/6[K:treble] x/3[K:bass] x10/3 | x4 | x10/3[K:treble] x2/3 |[K:bass] x4 | %207
 x3[K:treble] x |[K:bass] x4 | x3[K:treble] x |[K:bass] x4 | x3[K:treble] x |[K:bass] x4 | %213
 x3[K:treble] x |[K:bass] x4 | x3[K:treble] x |[K:bass] x4 | x3[K:treble] x |[K:bass] x4 | x4 | %220
 x4 | x3[K:treble] x |[K:bass] x4 | x2/3[K:treble] x10/3 |[K:bass] x4 | x2/3[K:treble] x10/3 | %226
[K:bass] x4 | x4 | x4 | x2/3[K:treble] x7/3[K:bass] x | x2/3[K:treble] x10/3 | %231
[K:bass] x2/3[K:treble] x10/3 |[K:bass] x2[K:treble] x2 |[K:bass] x2/3[K:treble] x10/3 | %234
[K:bass] x2[K:treble] x2 |[K:bass] x2/3[K:treble] x10/3 |[K:bass] x4 | x4 | x2/3[K:treble] x10/3 | %239
[K:bass] x4 | x2/3[K:treble] x10/3 |[K:bass] x4 | x4 |[K:bass] x4 |[K:bass] x2/3[K:treble] x10/3 | %245
 x29/64[K:bass] x7/32[K:treble] x10/3 | x29/64[K:bass] x7/32[K:treble] x10/3 |[K:bass] x4 | x4 | %249
 x4 | x4 | x4 | x4 | x4 | x4 | x4 | x4 | x4 | x4 | x4 | x4 | x4 | x4 | x4 | x2/3[K:treble] x10/3 | %265
 x4 | x4 | x3[K:bass] x | x4 |] %269

